betcity/landings/highspeed/dist/img/page/logo.svg

<svg width="332" height="45" viewBox="0 0 332 45" fill="none" xmlns="http://www.w3.org/2000/svg">
<path d="M60.1608 2.0813H95.7037L94.1663 11.6929H70.5277L69.6698 17.201H83.7443L82.1559 27.046H68.0814L67.0791 33.5514H93.0069L91.3718 43.6892H53.5398L60.1608 2.0813Z" fill="white"/>
<path d="M113.714 12.3379H98.8158L100.447 2.0813H142.152L140.462 12.3379H125.563L120.569 43.6934H108.724L113.71 12.3379H113.714Z" fill="white"/>
<path d="M143.024 24.9361C142.544 11.3398 151.985 1.37598 164.887 1.37598C179.845 1.37598 184.245 11.3992 184.763 16.1477H172.685C172.111 15.0317 170.013 12.0442 165.265 12.0442C158.636 12.0442 154.907 17.6712 155.14 24.3505C155.331 29.744 158.351 33.7287 163.511 33.7287C168.319 33.7287 170.446 30.9152 171.117 29.918H183.141C182.338 33.6693 177.437 44.3969 163.889 44.3969C151.509 44.3969 143.427 36.3682 143.019 24.9403L143.024 24.9361Z" fill="white"/>
<path d="M193.295 2.0813H205.2L201.224 27.1648L223.559 2.0813H235.468L228.842 43.6892H216.938L220.918 18.7202L198.578 43.6892H186.674L193.291 2.0813H193.295Z" fill="white"/>
<path d="M254.6 12.3379H239.701L241.337 2.0813H283.038L281.347 12.3379H266.449L261.454 43.6934H249.61L254.596 12.3379H254.6Z" fill="white"/>
<path d="M288.845 2.0813H300.749L296.774 27.1648L319.109 2.0813H331.017L324.392 43.6892H312.488L316.467 18.7202L294.128 43.6892H282.224L288.84 2.0813H288.845Z" fill="white"/>
<path d="M32.9076 17.4938H22.2902L23.1098 12.3973H48.1543L49.7808 2.0813H12.8322L10.3774 17.4938H2.37613L0.885437 26.9314H8.87399L6.20691 43.6934H30.8393C42.3359 43.6934 50.0187 38.6563 49.6619 28.5737C49.4114 21.4827 43.4061 17.4981 32.9034 17.4981L32.9076 17.4938ZM31.8289 33.3774H19.7463L20.8037 26.9272H33.2983C35.7616 26.9272 37.0229 27.8099 37.0824 29.4521C37.1758 32.0279 35.1118 33.3774 31.8246 33.3774H31.8289Z" fill="white"/>
</svg>

<svg width="332" height="45" fill="none" xmlns="http://www.w3.org/2000/svg"><path d="M60.16 2.081h35.544l-1.538 9.612H70.528L69.67 17.2h14.074l-1.588 9.845H68.08l-1.002 6.505h25.928l-1.634 10.14H53.54l6.62-41.608Zm53.554 10.257H98.816l1.631-10.257h41.705l-1.69 10.257h-14.899l-4.994 31.355h-11.845l4.986-31.355h.004Zm29.31 12.598c-.48-13.596 8.961-23.56 21.863-23.56 14.958 0 19.358 10.023 19.876 14.772h-12.078c-.574-1.116-2.672-4.104-7.42-4.104-6.629 0-10.358 5.627-10.125 12.306.191 5.394 3.211 9.379 8.371 9.379 4.808 0 6.935-2.814 7.606-3.811h12.024c-.803 3.751-5.704 14.479-19.252 14.479-12.38 0-20.462-8.029-20.87-19.457l.005-.004Zm50.271-22.855H205.2l-3.976 25.084L223.559 2.08h11.909l-6.626 41.608h-11.904l3.98-24.969-22.34 24.97h-11.904l6.617-41.609h.004ZM254.6 12.338h-14.899l1.636-10.257h41.701l-1.691 10.257h-14.898l-4.995 31.355H249.61l4.986-31.355h.004Zm34.245-10.257h11.904l-3.975 25.084L319.109 2.08h11.908l-6.625 41.608h-11.904l3.979-24.969-22.339 24.97h-11.904L288.84 2.08h.005ZM32.908 17.494H22.29l.82-5.097h25.044l1.627-10.316H12.832l-2.455 15.413h-8L.884 26.93h7.989L6.207 43.693h24.632c11.497 0 19.18-5.037 18.823-15.12-.25-7.09-6.256-11.075-16.759-11.075l.005-.004Zm-1.08 15.883H19.747l1.058-6.45h12.494c2.464 0 3.725.883 3.784 2.525.094 2.576-1.97 3.925-5.257 3.925h.004Z" fill="#fff"/></svg>
